public/images/icon3.svg

<svg width="92" height="92" viewBox="0 0 92 92" fill="none" xmlns="http://www.w3.org/2000/svg">
<rect width="92" height="92" rx="24" fill="white"/>
<g clip-path="url(#clip0_22728_10164)">
<path d="M74.5264 51.7273C73.8389 51.4426 73.1151 51.2982 72.3752 51.2982C70.7435 51.2982 69.2362 51.9946 68.1896 53.1616L66.9696 52.6562L63.4895 51.2147C63.9834 49.5616 64.2499 47.8113 64.2499 45.9998C64.2499 44.1883 63.9833 42.4381 63.4895 40.7849L66.9696 39.3435L68.1896 38.8381C69.2362 40.0051 70.7435 40.7014 72.3752 40.7014C73.1151 40.7014 73.8389 40.5571 74.5264 40.2722C77.3917 39.0852 78.7575 35.7883 77.5705 32.9227C76.6965 30.8128 74.656 29.4493 72.3722 29.4493C71.6324 29.4493 70.9086 29.5937 70.2211 29.8786C67.9629 30.814 66.6374 33.0598 66.7574 35.3722L65.5303 35.8805L62.0513 37.3215C60.3611 34.208 57.7916 31.6383 54.6781 29.9483L56.1191 26.4694L56.6269 25.2436C56.7253 25.2487 56.8239 25.2517 56.9229 25.2517C59.2068 25.2517 61.2471 23.8884 62.1213 21.7784C63.3081 18.9129 61.9425 15.6159 59.077 14.4289C58.3894 14.1444 57.6658 14 56.9259 14C54.642 14 52.6016 15.3634 51.7275 17.4734C50.7922 19.7316 51.4429 22.257 53.1629 23.8072L52.6564 25.0301L51.2149 28.5102C49.5618 28.0165 47.8115 27.7498 46 27.7498C44.1885 27.7498 42.4383 28.0165 40.7852 28.5102L39.3437 25.0301L38.8372 23.8072C40.5572 22.257 41.2079 19.7316 40.2725 17.4732C39.3984 15.3634 37.3578 14 35.0741 14C34.3342 14 33.6104 14.1444 32.9229 14.4292C30.0576 15.6162 28.6918 18.9131 29.8788 21.7787C30.7528 23.8886 32.7933 25.2521 35.0771 25.2521C35.1761 25.2521 35.2747 25.2491 35.3731 25.244L35.8808 26.4697L37.3218 29.9487C34.2083 31.6388 31.6387 34.2083 29.9487 37.3218L26.4697 35.8808L25.2426 35.3726C25.3626 33.0602 24.0371 30.8143 21.7788 29.8788C21.0913 29.5941 20.3676 29.4497 19.6277 29.4497C17.3438 29.4497 15.3035 30.8131 14.4293 32.9231C13.2425 35.7886 14.6081 39.0856 17.4736 40.2726C18.1611 40.5573 18.8848 40.7017 19.6247 40.7017C21.2565 40.7017 22.7637 40.0053 23.8103 38.8383L25.0303 39.3437L28.5104 40.7852C28.0166 42.4383 27.7501 44.1886 27.7501 46.0001C27.7501 47.8116 28.0167 49.5618 28.5104 51.2149L25.0302 52.6562L23.8102 53.1616C22.7636 51.9946 21.2563 51.2982 19.6246 51.2982C18.8847 51.2982 18.161 51.4426 17.4735 51.7274C14.6081 52.9144 13.2423 56.2113 14.4293 59.0769C15.3033 61.1868 17.3438 62.5503 19.6276 62.5503C20.3675 62.5503 21.0912 62.4059 21.7787 62.121C24.037 61.1857 25.3624 58.9398 25.2424 56.6274L26.4696 56.1192L29.9486 54.6782C31.6387 57.7917 34.2082 60.3613 37.3217 62.0513L35.8807 65.5303L35.3729 66.756C35.2746 66.7509 35.1759 66.7479 35.0769 66.7479C32.7931 66.7479 30.7527 68.1113 29.8786 70.2213C28.6917 73.0868 30.0573 76.3838 32.9228 77.5708C33.6103 77.8555 34.3341 77.9999 35.0739 77.9999C37.3578 77.9999 39.3982 76.6365 40.2723 74.5265C41.2077 72.2683 40.5569 69.7429 38.8369 68.1926L39.3434 66.9698L40.7849 63.4897C42.438 63.9834 44.1883 64.25 45.9998 64.25C47.8113 64.25 49.5615 63.9834 51.2146 63.4897L52.6561 66.9698L53.1626 68.1926C51.4427 69.7429 50.7919 72.2683 51.7273 74.5266C52.6013 76.6365 54.6418 78 56.9255 78C57.6654 78 58.3891 77.8556 59.0766 77.5708C61.942 76.3838 63.3078 73.0869 62.1208 70.2213C61.2468 68.1114 59.2063 66.7479 56.9225 66.7479C56.8235 66.7479 56.7249 66.7509 56.6265 66.756L56.1188 65.5303L54.6778 62.0513C57.7913 60.3612 60.3609 57.7917 62.0509 54.6782L65.5299 56.1192L66.757 56.6274C66.637 58.9398 67.9625 61.1857 70.2207 62.1212C70.9082 62.4059 71.632 62.5503 72.3719 62.5503C74.6557 62.5503 76.6961 61.1869 77.5702 59.0769C78.7575 56.2113 77.392 52.9143 74.5264 51.7273ZM46 60.4998C38.0048 60.4998 31.5001 53.995 31.5001 45.9998C31.5001 38.0046 38.0048 31.4998 46 31.4998C53.9953 31.4998 60.5 38.0046 60.5 45.9998C60.5 53.995 53.9951 60.4998 46 60.4998Z" fill="black"/>
<path d="M74.5264 51.7273C73.8389 51.4426 73.1151 51.2982 72.3752 51.2982C70.7435 51.2982 69.2362 51.9946 68.1896 53.1616L66.9696 52.6562L63.4895 51.2147C63.9834 49.5616 64.2499 47.8113 64.2499 45.9998C64.2499 44.1883 63.9833 42.4381 63.4895 40.7849L66.9696 39.3435L68.1896 38.8381C69.2362 40.0051 70.7435 40.7014 72.3752 40.7014C73.1151 40.7014 73.8389 40.5571 74.5264 40.2722C77.3917 39.0852 78.7575 35.7883 77.5705 32.9227C76.6965 30.8128 74.656 29.4493 72.3722 29.4493C71.6324 29.4493 70.9086 29.5937 70.2211 29.8786C67.9629 30.814 66.6374 33.0598 66.7574 35.3722L65.5303 35.8805L62.0513 37.3215C60.3611 34.208 57.7916 31.6383 54.6781 29.9483L56.1191 26.4694L56.6269 25.2436C56.7253 25.2487 56.8239 25.2517 56.9229 25.2517C59.2068 25.2517 61.2471 23.8884 62.1213 21.7784C63.3081 18.9129 61.9425 15.6159 59.077 14.4289C58.3894 14.1444 57.6658 14 56.9259 14C54.642 14 52.6016 15.3634 51.7275 17.4734C50.7922 19.7316 51.4429 22.257 53.1629 23.8072L52.6564 25.0301L51.2149 28.5102C49.5618 28.0165 47.8115 27.7498 46 27.7498C44.1885 27.7498 42.4383 28.0165 40.7852 28.5102L39.3437 25.0301L38.8372 23.8072C40.5572 22.257 41.2079 19.7316 40.2725 17.4732C39.3984 15.3634 37.3578 14 35.0741 14C34.3342 14 33.6104 14.1444 32.9229 14.4292C30.0576 15.6162 28.6918 18.9131 29.8788 21.7787C30.7528 23.8886 32.7933 25.2521 35.0771 25.2521C35.1761 25.2521 35.2747 25.2491 35.3731 25.244L35.8808 26.4697L37.3218 29.9487C34.2083 31.6388 31.6387 34.2083 29.9487 37.3218L26.4697 35.8808L25.2426 35.3726C25.3626 33.0602 24.0371 30.8143 21.7788 29.8788C21.0913 29.5941 20.3676 29.4497 19.6277 29.4497C17.3438 29.4497 15.3035 30.8131 14.4293 32.9231C13.2425 35.7886 14.6081 39.0856 17.4736 40.2726C18.1611 40.5573 18.8848 40.7017 19.6247 40.7017C21.2565 40.7017 22.7637 40.0053 23.8103 38.8383L25.0303 39.3437L28.5104 40.7852C28.0166 42.4383 27.7501 44.1886 27.7501 46.0001C27.7501 47.8116 28.0167 49.5618 28.5104 51.2149L25.0302 52.6562L23.8102 53.1616C22.7636 51.9946 21.2563 51.2982 19.6246 51.2982C18.8847 51.2982 18.161 51.4426 17.4735 51.7274C14.6081 52.9144 13.2423 56.2113 14.4293 59.0769C15.3033 61.1868 17.3438 62.5503 19.6276 62.5503C20.3675 62.5503 21.0912 62.4059 21.7787 62.121C24.037 61.1857 25.3624 58.9398 25.2424 56.6274L26.4696 56.1192L29.9486 54.6782C31.6387 57.7917 34.2082 60.3613 37.3217 62.0513L35.8807 65.5303L35.3729 66.756C35.2746 66.7509 35.1759 66.7479 35.0769 66.7479C32.7931 66.7479 30.7527 68.1113 29.8786 70.2213C28.6917 73.0868 30.0573 76.3838 32.9228 77.5708C33.6103 77.8555 34.3341 77.9999 35.0739 77.9999C37.3578 77.9999 39.3982 76.6365 40.2723 74.5265C41.2077 72.2683 40.5569 69.7429 38.8369 68.1926L39.3434 66.9698L40.7849 63.4897C42.438 63.9834 44.1883 64.25 45.9998 64.25C47.8113 64.25 49.5615 63.9834 51.2146 63.4897L52.6561 66.9698L53.1626 68.1926C51.4427 69.7429 50.7919 72.2683 51.7273 74.5266C52.6013 76.6365 54.6418 78 56.9255 78C57.6654 78 58.3891 77.8556 59.0766 77.5708C61.942 76.3838 63.3078 73.0869 62.1208 70.2213C61.2468 68.1114 59.2063 66.7479 56.9225 66.7479C56.8235 66.7479 56.7249 66.7509 56.6265 66.756L56.1188 65.5303L54.6778 62.0513C57.7913 60.3612 60.3609 57.7917 62.0509 54.6782L65.5299 56.1192L66.757 56.6274C66.637 58.9398 67.9625 61.1857 70.2207 62.1212C70.9082 62.4059 71.632 62.5503 72.3719 62.5503C74.6557 62.5503 76.6961 61.1869 77.5702 59.0769C78.7575 56.2113 77.392 52.9143 74.5264 51.7273ZM46 60.4998C38.0048 60.4998 31.5001 53.995 31.5001 45.9998C31.5001 38.0046 38.0048 31.4998 46 31.4998C53.9953 31.4998 60.5 38.0046 60.5 45.9998C60.5 53.995 53.9951 60.4998 46 60.4998Z" fill="url(#paint0_linear_22728_10164)"/>
<path d="M46.0001 35.25C40.0726 35.25 35.2501 40.0725 35.2501 46C35.2501 51.9275 40.0726 56.75 46.0001 56.75C51.9276 56.75 56.7501 51.9275 56.7501 46C56.7501 40.0725 51.9276 35.25 46.0001 35.25ZM47.8751 50.125H44.1251V41.875H47.8751V50.125Z" fill="black"/>
<path d="M46.0001 35.25C40.0726 35.25 35.2501 40.0725 35.2501 46C35.2501 51.9275 40.0726 56.75 46.0001 56.75C51.9276 56.75 56.7501 51.9275 56.7501 46C56.7501 40.0725 51.9276 35.25 46.0001 35.25ZM47.8751 50.125H44.1251V41.875H47.8751V50.125Z" fill="url(#paint1_linear_22728_10164)"/>
</g>
<defs>
<linearGradient id="paint0_linear_22728_10164" x1="45.9999" y1="14" x2="45.9999" y2="78" gradientUnits="userSpaceOnUse">
<stop stop-color="#EF8080"/>
<stop offset="1" stop-color="#F0145A"/>
</linearGradient>
<linearGradient id="paint1_linear_22728_10164" x1="46.0001" y1="35.25" x2="46.0001" y2="56.75" gradientUnits="userSpaceOnUse">
<stop stop-color="#EF8080"/>
<stop offset="1" stop-color="#F0145A"/>
</linearGradient>
<clipPath id="clip0_22728_10164">
<rect width="64" height="64" fill="white" transform="translate(14 14)"/>
</clipPath>
</defs>
</svg>

<svg width="92" height="92" fill="none" xmlns="http://www.w3.org/2000/svg"><rect width="92" height="92" rx="24" fill="#fff"/><g clip-path="url(#clip0_22728_10164)"><path d="M74.526 51.727a5.596 5.596 0 00-2.15-.429 5.61 5.61 0 00-4.186 1.864l-1.22-.506-3.48-1.441A18.19 18.19 0 0064.25 46c0-1.812-.267-3.562-.76-5.215l3.48-1.441 1.22-.506a5.61 5.61 0 004.185 1.863 5.632 5.632 0 005.195-7.779 5.61 5.61 0 00-5.198-3.473 5.634 5.634 0 00-5.615 5.923l-1.227.508-3.479 1.441a18.382 18.382 0 00-7.373-7.373l1.441-3.479.508-1.225a5.61 5.61 0 005.494-3.465A5.632 5.632 0 0056.926 14a5.61 5.61 0 00-5.199 3.473 5.634 5.634 0 001.436 6.334l-.507 1.223-1.441 3.48A18.196 18.196 0 0046 27.75c-1.812 0-3.562.267-5.215.76l-1.441-3.48-.507-1.223a5.634 5.634 0 001.435-6.334A5.61 5.61 0 0035.075 14a5.632 5.632 0 00-5.195 7.779 5.61 5.61 0 005.494 3.465l.508 1.226 1.44 3.479a18.38 18.38 0 00-7.372 7.373l-3.48-1.441-1.226-.508a5.634 5.634 0 00-3.464-5.494 5.595 5.595 0 00-2.151-.43 5.61 5.61 0 00-5.199 3.474 5.632 5.632 0 005.196 7.779 5.61 5.61 0 004.185-1.864l1.22.506 3.48 1.441A18.193 18.193 0 0027.75 46c0 1.812.267 3.562.76 5.215l-3.48 1.441-1.22.506a5.61 5.61 0 00-4.185-1.864 5.632 5.632 0 00-5.195 7.779 5.61 5.61 0 005.198 3.473c.74 0 1.463-.144 2.15-.429a5.634 5.634 0 003.464-5.494l1.228-.508 3.479-1.44a18.38 18.38 0 007.373 7.372l-1.441 3.48-.508 1.225a5.61 5.61 0 00-5.494 3.465A5.632 5.632 0 0035.074 78a5.61 5.61 0 005.198-3.474 5.634 5.634 0 00-1.435-6.333l.506-1.223 1.442-3.48c1.653.493 3.403.76 5.215.76 1.811 0 3.562-.267 5.215-.76l1.441 3.48.507 1.223a5.634 5.634 0 00-1.436 6.334A5.61 5.61 0 0056.926 78a5.632 5.632 0 005.195-7.779 5.61 5.61 0 00-5.495-3.465l-.507-1.226-1.441-3.479a18.38 18.38 0 007.373-7.373l3.479 1.441 1.227.508a5.634 5.634 0 003.464 5.494c.687.285 1.411.43 2.15.43a5.61 5.61 0 005.2-3.474 5.631 5.631 0 00-3.045-7.35zM46 60.5c-7.995 0-14.5-6.505-14.5-14.5S38.005 31.5 46 31.5 60.5 38.005 60.5 46 53.995 60.5 46 60.5z" fill="#000"/><path d="M74.526 51.727a5.596 5.596 0 00-2.15-.429 5.61 5.61 0 00-4.186 1.864l-1.22-.506-3.48-1.441A18.19 18.19 0 0064.25 46c0-1.812-.267-3.562-.76-5.215l3.48-1.441 1.22-.506a5.61 5.61 0 004.185 1.863 5.632 5.632 0 005.195-7.779 5.61 5.61 0 00-5.198-3.473 5.634 5.634 0 00-5.615 5.923l-1.227.508-3.479 1.441a18.382 18.382 0 00-7.373-7.373l1.441-3.479.508-1.225a5.61 5.61 0 005.494-3.465A5.632 5.632 0 0056.926 14a5.61 5.61 0 00-5.199 3.473 5.634 5.634 0 001.436 6.334l-.507 1.223-1.441 3.48A18.196 18.196 0 0046 27.75c-1.812 0-3.562.267-5.215.76l-1.441-3.48-.507-1.223a5.634 5.634 0 001.435-6.334A5.61 5.61 0 0035.075 14a5.632 5.632 0 00-5.195 7.779 5.61 5.61 0 005.494 3.465l.508 1.226 1.44 3.479a18.38 18.38 0 00-7.372 7.373l-3.48-1.441-1.226-.508a5.634 5.634 0 00-3.464-5.494 5.595 5.595 0 00-2.151-.43 5.61 5.61 0 00-5.199 3.474 5.632 5.632 0 005.196 7.779 5.61 5.61 0 004.185-1.864l1.22.506 3.48 1.441A18.193 18.193 0 0027.75 46c0 1.812.267 3.562.76 5.215l-3.48 1.441-1.22.506a5.61 5.61 0 00-4.185-1.864 5.632 5.632 0 00-5.195 7.779 5.61 5.61 0 005.198 3.473c.74 0 1.463-.144 2.15-.429a5.634 5.634 0 003.464-5.494l1.228-.508 3.479-1.44a18.38 18.38 0 007.373 7.372l-1.441 3.48-.508 1.225a5.61 5.61 0 00-5.494 3.465A5.632 5.632 0 0035.074 78a5.61 5.61 0 005.198-3.474 5.634 5.634 0 00-1.435-6.333l.506-1.223 1.442-3.48c1.653.493 3.403.76 5.215.76 1.811 0 3.562-.267 5.215-.76l1.441 3.48.507 1.223a5.634 5.634 0 00-1.436 6.334A5.61 5.61 0 0056.926 78a5.632 5.632 0 005.195-7.779 5.61 5.61 0 00-5.495-3.465l-.507-1.226-1.441-3.479a18.38 18.38 0 007.373-7.373l3.479 1.441 1.227.508a5.634 5.634 0 003.464 5.494c.687.285 1.411.43 2.15.43a5.61 5.61 0 005.2-3.474 5.631 5.631 0 00-3.045-7.35zM46 60.5c-7.995 0-14.5-6.505-14.5-14.5S38.005 31.5 46 31.5 60.5 38.005 60.5 46 53.995 60.5 46 60.5z" fill="url(#paint0_linear_22728_10164)"/><path d="M46 35.25c-5.927 0-10.75 4.822-10.75 10.75S40.073 56.75 46 56.75c5.928 0 10.75-4.822 10.75-10.75S51.928 35.25 46 35.25zm1.875 14.875h-3.75v-8.25h3.75v8.25z" fill="#000"/><path d="M46 35.25c-5.927 0-10.75 4.822-10.75 10.75S40.073 56.75 46 56.75c5.928 0 10.75-4.822 10.75-10.75S51.928 35.25 46 35.25zm1.875 14.875h-3.75v-8.25h3.75v8.25z" fill="url(#paint1_linear_22728_10164)"/></g><defs><linearGradient id="paint0_linear_22728_10164" x1="46" y1="14" x2="46" y2="78" gradientUnits="userSpaceOnUse"><stop stop-color="#EF8080"/><stop offset="1" stop-color="#F0145A"/></linearGradient><linearGradient id="paint1_linear_22728_10164" x1="46" y1="35.25" x2="46" y2="56.75" gradientUnits="userSpaceOnUse"><stop stop-color="#EF8080"/><stop offset="1" stop-color="#F0145A"/></linearGradient><clipPath id="clip0_22728_10164"><path fill="#fff" transform="translate(14 14)" d="M0 0h64v64H0z"/></clipPath></defs></svg>
